symbols/web/6k/materialsymbolsoutlined/6k_40px.svg

<svg xmlns="http://www.w3.org/2000/svg" height="40" width="40"><path d="M21.667 25h2.208v-3.75L27.208 25h2.834l-4.417-5 4.417-5h-2.834l-3.333 3.75V15h-2.208Zm-9.459 0h4.25q.625 0 1.063-.417.437-.416.437-1.041V20.75q0-.625-.437-1.042-.438-.416-1.063-.416h-3.5v-2.084h5V15h-5.75q-.625 0-1.062.438-.438.437-.438 1.062v7.042q0 .625.438 1.041.437.417 1.062.417Zm.75-1.458V20.75h2.75v2.792ZM7.792 35q-1.125 0-1.959-.833Q5 33.333 5 32.208V7.792q0-1.125.833-1.959Q6.667 5 7.792 5h24.416q1.125 0 1.959.833.833.834.833 1.959v24.416q0 1.125-.833 1.959-.834.833-1.959.833Zm0-2.792h24.416V7.792H7.792v24.416Zm0-24.416v24.416V7.792Z"/></svg>

<svg xmlns="http://www.w3.org/2000/svg" height="40" width="40"><path d="M21.667 25H23.875V21.25L27.208 25H30.042L25.625 20L30.042 15H27.208L23.875 18.75V15H21.667ZM12.208 25H16.458Q17.083 25 17.521 24.583Q17.958 24.167 17.958 23.542V20.75Q17.958 20.125 17.521 19.708Q17.083 19.292 16.458 19.292H12.958V17.208H17.958V15H12.208Q11.583 15 11.146 15.438Q10.708 15.875 10.708 16.5V23.542Q10.708 24.167 11.146 24.583Q11.583 25 12.208 25ZM12.958 23.542V20.75H15.708V23.542ZM7.792 35Q6.667 35 5.833 34.167Q5 33.333 5 32.208V7.792Q5 6.667 5.833 5.833Q6.667 5 7.792 5H32.208Q33.333 5 34.167 5.833Q35 6.667 35 7.792V32.208Q35 33.333 34.167 34.167Q33.333 35 32.208 35ZM7.792 32.208H32.208Q32.208 32.208 32.208 32.208Q32.208 32.208 32.208 32.208V7.792Q32.208 7.792 32.208 7.792Q32.208 7.792 32.208 7.792H7.792Q7.792 7.792 7.792 7.792Q7.792 7.792 7.792 7.792V32.208Q7.792 32.208 7.792 32.208Q7.792 32.208 7.792 32.208ZM7.792 7.792Q7.792 7.792 7.792 7.792Q7.792 7.792 7.792 7.792V32.208Q7.792 32.208 7.792 32.208Q7.792 32.208 7.792 32.208Q7.792 32.208 7.792 32.208Q7.792 32.208 7.792 32.208V7.792Q7.792 7.792 7.792 7.792Q7.792 7.792 7.792 7.792Z"/></svg>
